X:241
T: Dongbei de jiefang
N: C1734
O: China, Liaoning Changhai
S: III, 223]
R: Xiaodiao, Shuangwugeng diao]
M: 2/4
L: 1/16
K: F
G2F2G2A2 | c2AGA4 | G2F2G2A2 | c8
c2f2d2c2 | c2f2d2c2 | c2A2G2A2 | c2d2c2B2 | A2G2F4
G2F2c2B2 | A2F2a2g2 | f8- | f8

